X:1
T:Title
%%score { ( 1 4 ) | ( 2 3 ) }
L:1/8
Q:1/4=110
M:4/4
K:C
V:1 treble nm="Grand Piano"
V:4 treble 
V:2 bass 
V:3 bass 
V:1
 C4 E4 | A2 ^F2 G4 | E2 G2 [Ec]3 [Ed] | [Fc]4 [FB]2 z2 | G4 G4 | A2 ^F2 G4 | [Fd]4 [Fd]3 [Ge] | %7
w: R.~Frank~Lehman *|||||||
 [Fd]4 [Ec]2 z2 | z4 B2 z2 | [B,DG]2 [B,DG]2 [CEA]2 [D^GB][EAc] | [DGB]4 A4 |[M:3/4] [B,DG]4 z2 | %12
w: |||||
[M:1/4] GG |[M:4/4] z2 c2 z4 | [CGB]2 [CFA]2 z2 [CFA]2 | z2 [Dd]2 z4 | [DAc]2 [DGB]2 z2 [DGB]2 | %17
w: |||||
 [E^Ge]2 [Ee]-[EAe] [EBe]2 [EGd]2 | [EAc]2 [E_Bc]2 [FAc]2 [_EAc]2 | %19
w: ||
 [EGc]2 z2 [DFB]4[Q:1/4=108][Q:1/4=107][Q:1/4=105][Q:1/4=104][Q:1/4=102][Q:1/4=100][Q:1/4=99][Q:1/4=97][Q:1/4=95][Q:1/4=94][Q:1/4=92][Q:1/4=91][Q:1/4=89][Q:1/4=87][Q:1/4=86][Q:1/4=84] | %20
w: |
 [Ec]6 z2 |] %21
w: |
V:2
 C,4 E,4 | A,2 ^F,2 G,4 | C2 z2 z4 | [D,G,]4 [D,G,]2 z2 | G,4 G,4 | A,2 ^F,2 G,4 | %6
 [G,,G,]4 [G,,G,]3 [G,,G,] | [C,G,]6 z2 | [A,,A,]4 [B,,^G,]2 C,2 | D,2 D,2 C,2 B,,C, | %10
 D,2 z2 [^F,D]2 D,2 |[M:3/4] G,,4 z2 |[M:1/4] G,G, |[M:4/4] z2 G,2 z4 | F,2 F,2 z2 F,2 | %15
 D,2 D,E, ^F,2 D,2 | G,2 G,2 z2 G,2 | E,2 E,^F, ^G,2 E,2 | A,2 G,2 F,2 ^F,2 | G,2 z2 [G,,G,]4 | %20
 [C,G,C]6 z2 |] %21
V:3
 x8 | x8 | [C,G,]2- [C,G,E]2 [C,G,]3 [C,G,] | x8 | x8 | x8 | x8 | x8 | x8 | x8 | x8 |[M:3/4] x6 | %12
[M:1/4] x2 |[M:4/4] [C,G,]2 C,D, [E,G,]2 C,2 | x8 | x8 | x8 | x8 | x8 | x8 | x8 |] %21
V:4
 x8 | x8 | x8 | x8 | x8 | x8 | x8 | x8 | [Ec]4 E2- [A,EA]2 | x8 | z2 E,2 z2 C2 |[M:3/4] x6 | %12
[M:1/4] x2 |[M:4/4] [Ec]2 EF [Gc]2 [CEB]2 | x8 | [D^Fd]2 FG [DAd]2 [DFc]2 | x8 | z2 .^G2 z4 | x8 | %19
 x8 | x8 |] %21

